dist/assets/img/check-green.svg

<svg width="40" height="40" viewBox="0 0 40 40" fill="none" xmlns="http://www.w3.org/2000/svg">
<path d="M20 3.3335C10.8334 3.3335 3.33337 10.8335 3.33337 20.0002C3.33337 29.1668 10.8334 36.6668 20 36.6668C29.1667 36.6668 36.6667 29.1668 36.6667 20.0002C36.6667 10.8335 29.1667 3.3335 20 3.3335ZM16.6667 28.3335L8.33337 20.0002L10.6834 17.6502L16.6667 23.6168L29.3167 10.9668L31.6667 13.3335L16.6667 28.3335Z" fill="#1ABF7E"/>
</svg>

<svg width="40" height="40" viewBox="0 0 40 40" fill="none" xmlns="http://www.w3.org/2000/svg"><path d="M20 3.333c-9.167 0-16.667 7.5-16.667 16.667 0 9.167 7.5 16.667 16.667 16.667 9.167 0 16.667-7.5 16.667-16.667 0-9.166-7.5-16.666-16.667-16.666zm-3.333 25L8.333 20l2.35-2.35 5.984 5.967 12.65-12.65 2.35 2.367-15 15z" fill="#1ABF7E"/></svg>
